X: 19964
T: Jim Coleman's
R: reel
M: 4/4
K: Amixolydian
BAeA BAeA|B~E3 ~G3A|BAeA (3Bcd ef|gedB BA A2|
BAeA BAeA|B~E3 ~G3B|A2eA fAef|gedB BA A2||
e~a3 agaf|gedB GABd|e~a3 agaf|gedB BA A2|
e~a3 agaf|gedB GABd|e~A3 f~A3|gedB BA A2||

